symbolic/64x64/apps/xfwm4.svg

<svg xmlns="http://www.w3.org/2000/svg" style="enable-background:new" width="64" height="64" version="1.0">
 <rect style="opacity:0.2" width="44" height="34" x="18" y="7" rx="3.385" ry="2.72"/>
 <rect style="opacity:0.2" width="44" height="34" x="10" y="15" rx="3.385" ry="2.72"/>
 <rect style="opacity:0.2" width="44" height="34" x="2" y="23" rx="3.385" ry="2.72"/>
 <rect style="fill:#007dde" width="44" height="34" x="18" y="6" rx="3.385" ry="2.72"/>
 <rect style="fill:#2fbce5" width="44" height="34" x="10" y="14" rx="3.385" ry="2.72"/>
 <rect style="fill:#e4e4e4" width="44" height="34" x="2" y="22" rx="3.385" ry="2.72"/>
 <path style="opacity:0.1;fill-rule:evenodd" d="M 31.878972,35.14341 26.989412,39.88005 32,44.842242 28.804842,47.842112 23.987898,42.631812 19.19516,48 16,44.977574 21.273918,40.05502 16.40269,35.217684 20.003978,32 l 4.388328,5.057884 4.243096,-4.897262 z"/>
 <path style="fill:#189ce1;fill-rule:evenodd" d="M 31.878972,34.14341 26.989412,38.88005 32,43.842242 28.804842,46.842112 23.987898,41.631812 19.19516,47 16,43.977574 21.273918,39.05502 16.40269,34.217684 20.003978,31 l 4.388328,5.057884 4.243096,-4.897262 z"/>
 <path style="opacity:0.1;fill:#ffffff" d="M 21.382812,6 C 19.507737,6 18,7.21187 18,8.71875 v 1 C 18,8.21187 19.507737,7 21.382812,7 H 58.617188 C 60.492263,7 62,8.21187 62,9.71875 v -1 C 62,7.21187 60.492263,6 58.617188,6 Z"/>
 <path style="opacity:0.2;fill:#ffffff" d="M 13.382812,14 C 11.507737,14 10,15.21187 10,16.71875 v 1 C 10,16.21187 11.507737,15 13.382812,15 H 50.617188 C 52.492263,15 54,16.21187 54,17.71875 v -1 C 54,15.21187 52.492263,14 50.617188,14 Z"/>
 <path style="opacity:0.2;fill:#ffffff" d="M 5.3828125,22 C 3.5077357,22 2,23.21187 2,24.71875 v 1 C 2,24.21187 3.5077357,23 5.3828125,23 H 42.617188 C 44.492263,23 46,24.21187 46,25.71875 v -1 C 46,23.21187 44.492263,22 42.617188,22 Z"/>
</svg>

<svg xmlns="http://www.w3.org/2000/svg" style="enable-background:new" width="64" height="64" version="1.0"><rect style="opacity:.2" width="44" height="34" x="18" y="7" rx="3.385" ry="2.72"/><rect style="opacity:.2" width="44" height="34" x="10" y="15" rx="3.385" ry="2.72"/><rect style="opacity:.2" width="44" height="34" x="2" y="23" rx="3.385" ry="2.72"/><rect style="fill:#007dde" width="44" height="34" x="18" y="6" rx="3.385" ry="2.72"/><rect style="fill:#2fbce5" width="44" height="34" x="10" y="14" rx="3.385" ry="2.72"/><rect style="fill:#e4e4e4" width="44" height="34" x="2" y="22" rx="3.385" ry="2.72"/><path style="opacity:.1;fill-rule:evenodd" d="m31.879 35.143-4.89 4.737L32 44.842l-3.195 3-4.817-5.21L19.195 48 16 44.978l5.274-4.923-4.871-4.837L20.004 32l4.388 5.058 4.243-4.897z"/><path style="fill:#189ce1;fill-rule:evenodd" d="m31.879 34.143-4.89 4.737L32 43.842l-3.195 3-4.817-5.21L19.195 47 16 43.978l5.274-4.923-4.871-4.837L20.004 31l4.388 5.058 4.243-4.897z"/><path style="opacity:.1;fill:#fff" d="M21.383 6C19.508 6 18 7.212 18 8.719v1C18 8.212 19.508 7 21.383 7h37.234C60.492 7 62 8.212 62 9.719v-1C62 7.212 60.492 6 58.617 6z"/><path style="opacity:.2;fill:#fff" d="M13.383 14C11.508 14 10 15.212 10 16.719v1C10 16.212 11.508 15 13.383 15h37.234C52.492 15 54 16.212 54 17.719v-1C54 15.212 52.492 14 50.617 14zM5.383 22C3.508 22 2 23.212 2 24.719v1C2 24.212 3.508 23 5.383 23h37.234C44.492 23 46 24.212 46 25.719v-1C46 23.212 44.492 22 42.617 22z"/></svg>
